svg/k8s-role.svg

<?xml version="1.0" encoding="UTF-8"?>
<svg xmlns="http://www.w3.org/2000/svg" xmlns:xlink="http://www.w3.org/1999/xlink" width="32.978001" height="32" viewBox="0 0 32.978001 32">
<path fill-rule="nonzero" fill="rgb(19.607843%, 42.352941%, 89.803922%)" fill-opacity="1" d="M 16.378906 0.847656 C 16.105469 0.863281 15.835938 0.933594 15.585938 1.046875 L 4.722656 6.238281 C 4.15625 6.507812 3.742188 7.023438 3.601562 7.636719 L 0.921875 19.292969 C 0.78125 19.902344 0.925781 20.546875 1.320312 21.035156 L 8.839844 30.382812 C 9.234375 30.871094 9.832031 31.15625 10.460938 31.15625 L 22.515625 31.152344 C 23.148438 31.152344 23.746094 30.871094 24.140625 30.378906 L 31.65625 21.03125 C 32.050781 20.542969 32.199219 19.902344 32.058594 19.289062 L 29.375 7.632812 C 29.234375 7.019531 28.820312 6.503906 28.25 6.234375 L 17.386719 1.046875 C 17.074219 0.898438 16.726562 0.828125 16.378906 0.847656 M 16.378906 0.847656 "/>
<path fill-rule="nonzero" fill="rgb(100%, 100%, 100%)" fill-opacity="1" d="M 16.375 0.00390625 C 16.082031 0.0195312 15.796875 0.0898438 15.535156 0.214844 L 4.070312 5.695312 C 3.46875 5.980469 3.03125 6.523438 2.882812 7.167969 L 0.0546875 19.472656 C -0.078125 20.046875 0.03125 20.648438 0.351562 21.140625 C 0.390625 21.203125 0.433594 21.257812 0.476562 21.3125 L 8.414062 31.183594 C 8.832031 31.699219 9.464844 32 10.128906 32 L 22.851562 31.996094 C 23.519531 31.996094 24.152344 31.695312 24.566406 31.179688 L 32.5 21.3125 C 32.914062 20.796875 33.070312 20.117188 32.921875 19.472656 L 30.089844 7.164062 C 29.9375 6.519531 29.503906 5.976562 28.90625 5.691406 L 17.4375 0.214844 C 17.105469 0.0585938 16.742188 -0.015625 16.375 0.00390625 M 16.378906 0.847656 C 16.726562 0.828125 17.074219 0.898438 17.386719 1.046875 L 28.25 6.234375 C 28.816406 6.507812 29.230469 7.019531 29.375 7.632812 L 32.058594 19.289062 C 32.199219 19.902344 32.050781 20.542969 31.65625 21.03125 L 24.140625 30.378906 C 23.746094 30.871094 23.148438 31.15625 22.515625 31.152344 L 10.460938 31.15625 C 9.828125 31.15625 9.230469 30.871094 8.839844 30.382812 L 1.320312 21.035156 C 0.925781 20.546875 0.78125 19.902344 0.921875 19.292969 L 3.601562 7.636719 C 3.742188 7.023438 4.15625 6.507812 4.722656 6.238281 L 15.585938 1.046875 C 15.832031 0.929688 16.105469 0.859375 16.378906 0.847656 M 17.5 16.300781 C 17.496094 16.675781 17.273438 17.007812 16.929688 17.152344 C 16.644531 17.269531 16.320312 17.238281 16.0625 17.066406 C 15.804688 16.898438 15.648438 16.609375 15.648438 16.300781 C 15.648438 15.792969 16.0625 15.382812 16.574219 15.382812 C 17.082031 15.382812 17.5 15.792969 17.5 16.300781 M 16.683594 8.851562 L 11 11.367188 L 11 15.117188 C 11 18.589844 13.421875 21.839844 16.683594 22.628906 C 19.941406 21.839844 22.363281 18.589844 22.363281 15.117188 L 22.363281 11.367188 Z M 19.691406 18.945312 L 13.671875 18.945312 L 13.671875 13.890625 L 14.535156 13.890625 L 14.535156 13.339844 C 14.535156 12.148438 15.507812 11.183594 16.710938 11.183594 C 17.914062 11.183594 18.886719 12.148438 18.886719 13.339844 L 18.886719 13.890625 L 19.691406 13.890625 Z M 16.679688 11.984375 C 15.964844 11.984375 15.382812 12.5625 15.378906 13.28125 L 15.378906 13.820312 L 17.988281 13.820312 L 17.988281 13.269531 C 17.980469 12.554688 17.394531 11.980469 16.679688 11.984375 M 16.679688 11.984375 "/>
<path fill="none" stroke-width="0.731" stroke-linecap="butt" stroke-linejoin="round" stroke="rgb(100%, 100%, 100%)" stroke-opacity="1" stroke-dasharray="1.463 0.731" stroke-dashoffset="0.731" stroke-miterlimit="10" d="M 7.410156 8.085938 L 25.566406 8.085938 L 25.566406 23.914062 L 7.410156 23.914062 Z M 7.410156 8.085938 "/>
</svg>

<svg role="img" viewBox="0 0 32.978 32" xmlns="http://www.w3.org/2000/svg"><path d="M16.379.848a2.1 2.1 0 0 0-.793.199L4.723 6.238a2.06 2.06 0 0 0-1.121 1.399L.922 19.293c-.14.61.004 1.254.398 1.742l7.52 9.348c.394.488.992.773 1.62.773l12.056-.004c.632 0 1.23-.28 1.625-.773l7.515-9.348a2.04 2.04 0 0 0 .403-1.742L29.375 7.633a2.06 2.06 0 0 0-1.125-1.399L17.387 1.047a2.1 2.1 0 0 0-1.008-.2m0 0" fill="rgb(19.607843%, 42.352942%, 89.803922%)"/><path d="M16.375.004a2.2 2.2 0 0 0-.84.21L4.07 5.696a2.17 2.17 0 0 0-1.187 1.473L.055 19.473a2.16 2.16 0 0 0 .297 1.668q.06.091.125.172l7.937 9.87a2.21 2.21 0 0 0 1.715.817l12.723-.004c.668 0 1.3-.3 1.714-.816l7.934-9.867c.414-.516.57-1.196.422-1.84L30.09 7.164a2.19 2.19 0 0 0-1.184-1.473L17.438.215a2.2 2.2 0 0 0-1.063-.211m.004.844c.348-.02.695.05 1.008.199L28.25 6.234c.566.274.98.786 1.125 1.399l2.684 11.656a2.04 2.04 0 0 1-.403 1.742l-7.515 9.348a2.07 2.07 0 0 1-1.625.773l-12.055.004c-.633 0-1.23-.285-1.621-.773l-7.52-9.348a2.04 2.04 0 0 1-.398-1.742l2.68-11.656a2.06 2.06 0 0 1 1.12-1.399l10.864-5.191c.246-.117.52-.188.793-.2M17.5 16.302a.93.93 0 0 1-.57.851.93.93 0 0 1-1.008-.199.9.9 0 0 1-.274-.652c0-.508.415-.918.926-.918.508 0 .926.41.926.918m-.816-7.45L11 11.368v3.75c0 3.473 2.422 6.723 5.684 7.512 3.257-.79 5.68-4.04 5.68-7.512v-3.75Zm3.007 10.094h-6.02v-5.054h.864v-.551c0-1.192.973-2.156 2.176-2.156s2.176.964 2.176 2.156v.55h.804Zm-3.011-6.96c-.715 0-1.297.578-1.301 1.296v.54h2.61v-.551a1.3 1.3 0 0 0-1.31-1.286m0 0" fill="rgb(100%, 100%, 100%)"/><path d="M7.41 8.086h18.156v15.828H7.41Zm0 0" fill="none" stroke="rgb(100%, 100%, 100%)" stroke-dasharray="1.463 .731" stroke-dashoffset=".731" stroke-linejoin="round" stroke-miterlimit="10" stroke-width=".731"/></svg>
